icons/1_Primary/Huawei.svg

<svg width="1024" height="1024" viewBox="0 0 1024 1024" fill="none" xmlns="http://www.w3.org/2000/svg">
<g clip-path="url(#clip0_2_2448)">
<path d="M512 1024C794.77 1024 1024 794.77 1024 512C1024 229.23 794.77 0 512 0C229.23 0 0 229.23 0 512C0 794.77 229.23 1024 512 1024Z" fill="#FF837D"/>
<path d="M282.54 451.42C279.2 407.02 326.08 362.71 326.08 362.71C326.08 362.71 412.23 466.62 475.22 603.66C475.377 603.997 475.417 604.377 475.334 604.739C475.25 605.101 475.048 605.425 474.76 605.66C474.476 605.944 474.111 606.133 473.715 606.201C473.32 606.27 472.912 606.213 472.55 606.04C449.55 594.67 350.55 544.57 309.71 504.91C309.71 504.91 284.33 485.01 282.55 451.43M292.55 643.77C310.43 675.51 340.55 700.15 371.86 692.59C393.52 687.21 442.51 653.16 458.67 641.65C459.91 640.51 459.47 639.65 459.47 639.65C459.311 639.216 459.022 638.842 458.643 638.579C458.263 638.316 457.812 638.176 457.35 638.18V638L292.55 643.77ZM253.13 570.11C271 607.74 305.13 619.11 305.13 619.11C315.206 623.083 325.855 625.409 336.67 626C339.12 626.46 434.67 626.05 460.24 625.93C460.589 625.894 460.925 625.777 461.22 625.587C461.515 625.398 461.762 625.142 461.94 624.84C462.73 623.54 461.32 622.39 461.32 622.39C389 573.76 248.7 499.11 248.7 499.11C235.96 538.42 253.14 570.11 253.14 570.11M446.34 296.88C402.72 308.11 392.41 347.54 392.41 347.54C384.41 372.34 392.61 399.54 392.61 399.54C407.17 463.89 478.82 569.61 494.22 591.83C495.31 592.92 496.22 592.53 496.22 592.53C496.676 592.42 497.079 592.154 497.359 591.778C497.639 591.401 497.777 590.938 497.75 590.47C521.45 354.39 472.87 291.82 472.87 291.82C465.7 292.44 446.34 296.82 446.34 296.82M526.14 590.63C526.149 591.021 526.272 591.4 526.494 591.722C526.716 592.044 527.028 592.293 527.39 592.44C527.832 592.609 528.321 592.609 528.763 592.442C529.206 592.274 529.571 591.949 529.79 591.53C545.59 568.75 616.79 463.59 631.32 399.53C631.32 399.53 639.18 368.53 631.59 347.53C631.59 347.53 620.82 307.53 577.13 296.9C577.13 296.9 564.55 293.73 551.2 291.9C551.03 292.1 502.41 354.9 526.11 590.72M566.4 638.23C566.011 638.278 565.64 638.419 565.316 638.639C564.993 638.86 564.727 639.155 564.54 639.5C564.446 639.892 564.456 640.302 564.568 640.689C564.68 641.077 564.891 641.428 565.18 641.71C580.96 652.97 628.76 686.27 651.82 692.71C651.82 692.71 694.41 707.16 731.4 643.86L566.4 638.14V638.23ZM562.76 622.3C562.385 622.558 562.1 622.928 561.946 623.357C561.792 623.785 561.776 624.252 561.9 624.69C561.9 624.69 562.57 625.93 563.6 625.93C589.51 625.93 687.67 626.1 690.14 625.63C699.862 624.879 709.419 622.692 718.5 619.14C718.5 619.14 753.4 608.14 771.5 568.6C771.5 568.6 787.67 536.41 775.15 498.79C775.15 498.79 635.15 573.65 562.69 622.28M549.07 603C548.871 603.43 548.808 603.91 548.891 604.377C548.973 604.844 549.196 605.274 549.53 605.61C549.847 605.844 550.224 605.983 550.617 606.012C551.01 606.04 551.403 605.956 551.75 605.77C575.36 594.09 673.58 544.33 714.26 504.86C714.26 504.86 740 484.24 741.37 451.16C744.37 405.21 697.9 362.68 697.9 362.68C697.9 362.68 612 466.28 549.07 603Z" fill="white"/>
</g>
<defs>
<clipPath id="clip0_2_2448">
<rect width="1024" height="1024" fill="white"/>
</clipPath>
</defs>
</svg>

<svg xmlns="http://www.w3.org/2000/svg" width="1024" height="1024" fill="none">
   <g clip-path="url(#a)">
      <path fill="#FF837D" d="M512 1024c282.77 0 512-229.23 512-512S794.77 0 512 0 0 229.23 0 512s229.23 512 512 512Z"/>
      <path fill="#fff" d="M282.54 451.42c-3.34-44.4 43.54-88.71 43.54-88.71s86.15 103.91 149.14 240.95a1.671 1.671 0 0 1-.46 2 1.943 1.943 0 0 1-2.21.38c-23-11.37-122-61.47-162.84-101.13 0 0-25.38-19.9-27.16-53.48m10 192.34c17.88 31.74 48 56.38 79.31 48.82 21.66-5.38 70.65-39.43 86.81-50.94 1.24-1.14.8-2 .8-2a2.243 2.243 0 0 0-2.12-1.47V638l-164.8 5.77Zm-39.42-73.66c17.87 37.63 52 49 52 49a101.006 101.006 0 0 0 31.54 6.89c2.45.46 98 .05 123.57-.07a2.233 2.233 0 0 0 1.7-1.09c.79-1.3-.62-2.45-.62-2.45C389 573.76 248.7 499.11 248.7 499.11c-12.74 39.31 4.44 71 4.44 71m193.2-273.23c-43.62 11.23-53.93 50.66-53.93 50.66-8 24.8.2 52 .2 52 14.56 64.35 86.21 170.07 101.61 192.29 1.09 1.09 2 .7 2 .7a2 2 0 0 0 1.53-2.06c23.7-236.08-24.88-298.65-24.88-298.65-7.17.62-26.53 5-26.53 5m79.8 293.81a2.004 2.004 0 0 0 1.25 1.81 1.933 1.933 0 0 0 2.4-.91c15.8-22.78 87-127.94 101.53-192 0 0 7.86-31 .27-52 0 0-10.77-40-54.46-50.63 0 0-12.58-3.17-25.93-5-.17.2-48.79 63-25.09 298.82m40.29 47.51c-.389.048-.76.189-1.084.409a2.468 2.468 0 0 0-.776.861 2.327 2.327 0 0 0 .64 2.21c15.78 11.26 63.58 44.56 86.64 51 0 0 42.59 14.45 79.58-48.85l-165-5.72v.09Zm-3.64-15.93a2.176 2.176 0 0 0-.86 2.39s.67 1.24 1.7 1.24c25.91 0 124.07.17 126.54-.3a98.728 98.728 0 0 0 28.36-6.49s34.9-11 53-50.54c0 0 16.17-32.19 3.65-69.81 0 0-140 74.86-212.46 123.49M549.07 603a2.317 2.317 0 0 0 .46 2.61 2.085 2.085 0 0 0 2.22.16c23.61-11.68 121.83-61.44 162.51-100.91 0 0 25.74-20.62 27.11-53.7 3-45.95-43.47-88.48-43.47-88.48S612 466.28 549.07 603Z"/>
   </g>
   <defs>
      <clipPath id="a">
         <path fill="#fff" d="M0 0h1024v1024H0z"/>
      </clipPath>
   </defs>
</svg>
